bernoullicharts/pow_x_5_4__bound.svg

<?xml version="1.0" encoding="utf-8" standalone="no"?>
<!DOCTYPE svg PUBLIC "-//W3C//DTD SVG 1.1//EN"
  "http://www.w3.org/Graphics/SVG/1.1/DTD/svg11.dtd">
<!-- Created with matplotlib (https://matplotlib.org/) -->
<svg height="345.6pt" version="1.1" viewBox="0 0 460.8 345.6" width="460.8pt" xmlns="http://www.w3.org/2000/svg" xmlns:xlink="http://www.w3.org/1999/xlink">
 <defs>
  <style type="text/css">
*{stroke-linecap:butt;stroke-linejoin:round;}
  </style>
 </defs>
 <g id="figure_1">
  <g id="patch_1">
   <path d="M 0 345.6 
L 460.8 345.6 
L 460.8 0 
L 0 0 
z
" style="fill:#ffffff;"/>
  </g>
  <g id="axes_1">
   <g id="patch_2">
    <path d="M 57.6 307.584 
L 414.72 307.584 
L 414.72 41.472 
L 57.6 41.472 
z
" style="fill:#ffffff;"/>
   </g>
   <g id="matplotlib.axis_1">
    <g id="xtick_1">
     <g id="line2d_1">
      <defs>
       <path d="M 0 0 
L 0 3.5 
" id="m12949b4d18" style="stroke:#000000;stroke-width:0.8;"/>
      </defs>
      <g>
       <use style="stroke:#000000;stroke-width:0.8;" x="73.800255" xlink:href="#m12949b4d18" y="307.584"/>
      </g>
     </g>
     <g id="text_1">
      <text style="font-family:DejaVu Sans;font-size:10px;font-style:normal;font-weight:normal;text-anchor:middle;" transform="rotate(-0, 73.800255, 322.182437)" x="73.800255" y="322.182437">0.0</text>
     </g>
    </g>
    <g id="xtick_2">
     <g id="line2d_2">
      <g>
       <use style="stroke:#000000;stroke-width:0.8;" x="138.744153" xlink:href="#m12949b4d18" y="307.584"/>
      </g>
     </g>
     <g id="text_2">
      <text style="font-family:DejaVu Sans;font-size:10px;font-style:normal;font-weight:normal;text-anchor:middle;" transform="rotate(-0, 138.744153, 322.182437)" x="138.744153" y="322.182437">0.2</text>
     </g>
    </g>
    <g id="xtick_3">
     <g id="line2d_3">
      <g>
       <use style="stroke:#000000;stroke-width:0.8;" x="203.688051" xlink:href="#m12949b4d18" y="307.584"/>
      </g>
     </g>
     <g id="text_3">
      <text style="font-family:DejaVu Sans;font-size:10px;font-style:normal;font-weight:normal;text-anchor:middle;" transform="rotate(-0, 203.688051, 322.182437)" x="203.688051" y="322.182437">0.4</text>
     </g>
    </g>
    <g id="xtick_4">
     <g id="line2d_4">
      <g>
       <use style="stroke:#000000;stroke-width:0.8;" x="268.631949" xlink:href="#m12949b4d18" y="307.584"/>
      </g>
     </g>
     <g id="text_4">
      <text style="font-family:DejaVu Sans;font-size:10px;font-style:normal;font-weight:normal;text-anchor:middle;" transform="rotate(-0, 268.631949, 322.182437)" x="268.631949" y="322.182437">0.6</text>
     </g>
    </g>
    <g id="xtick_5">
     <g id="line2d_5">
      <g>
       <use style="stroke:#000000;stroke-width:0.8;" x="333.575847" xlink:href="#m12949b4d18" y="307.584"/>
      </g>
     </g>
     <g id="text_5">
      <text style="font-family:DejaVu Sans;font-size:10px;font-style:normal;font-weight:normal;text-anchor:middle;" transform="rotate(-0, 333.575847, 322.182437)" x="333.575847" y="322.182437">0.8</text>
     </g>
    </g>
    <g id="xtick_6">
     <g id="line2d_6">
      <g>
       <use style="stroke:#000000;stroke-width:0.8;" x="398.519745" xlink:href="#m12949b4d18" y="307.584"/>
      </g>
     </g>
     <g id="text_6">
      <text style="font-family:DejaVu Sans;font-size:10px;font-style:normal;font-weight:normal;text-anchor:middle;" transform="rotate(-0, 398.519745, 322.182437)" x="398.519745" y="322.182437">1.0</text>
     </g>
    </g>
    <g id="text_7">
     <text style="font-family:DejaVu Sans;font-size:10px;font-style:normal;font-weight:normal;text-anchor:middle;" transform="rotate(-0, 236.16, 335.860562)" x="236.16" y="335.860562">Input Coin's Heads Probability (λ)</text>
    </g>
   </g>
   <g id="matplotlib.axis_2">
    <g id="ytick_1">
     <g id="line2d_7">
      <defs>
       <path d="M 0 0 
L -3.5 0 
" id="mb7506683a5" style="stroke:#000000;stroke-width:0.8;"/>
      </defs>
      <g>
       <use style="stroke:#000000;stroke-width:0.8;" x="57.6" xlink:href="#mb7506683a5" y="295.781835"/>
      </g>
     </g>
     <g id="text_8">
      <text style="font-family:DejaVu Sans;font-size:10px;font-style:normal;font-weight:normal;text-anchor:end;" transform="rotate(-0, 50.6, 299.581053)" x="50.6" y="299.581053">0</text>
     </g>
    </g>
    <g id="ytick_2">
     <g id="line2d_8">
      <g>
       <use style="stroke:#000000;stroke-width:0.8;" x="57.6" xlink:href="#mb7506683a5" y="254.223604"/>
      </g>
     </g>
     <g id="text_9">
      <text style="font-family:DejaVu Sans;font-size:10px;font-style:normal;font-weight:normal;text-anchor:end;" transform="rotate(-0, 50.6, 258.022823)" x="50.6" y="258.022823">20</text>
     </g>
    </g>
    <g id="ytick_3">
     <g id="line2d_9">
      <g>
       <use style="stroke:#000000;stroke-width:0.8;" x="57.6" xlink:href="#mb7506683a5" y="212.665374"/>
      </g>
     </g>
     <g id="text_10">
      <text style="font-family:DejaVu Sans;font-size:10px;font-style:normal;font-weight:normal;text-anchor:end;" transform="rotate(-0, 50.6, 216.464592)" x="50.6" y="216.464592">40</text>
     </g>
    </g>
    <g id="ytick_4">
     <g id="line2d_10">
      <g>
       <use style="stroke:#000000;stroke-width:0.8;" x="57.6" xlink:href="#mb7506683a5" y="171.107143"/>
      </g>
     </g>
     <g id="text_11">
      <text style="font-family:DejaVu Sans;font-size:10px;font-style:normal;font-weight:normal;text-anchor:end;" transform="rotate(-0, 50.6, 174.906362)" x="50.6" y="174.906362">60</text>
     </g>
    </g>
    <g id="ytick_5">
     <g id="line2d_11">
      <g>
       <use style="stroke:#000000;stroke-width:0.8;" x="57.6" xlink:href="#mb7506683a5" y="129.548913"/>
      </g>
     </g>
     <g id="text_12">
      <text style="font-family:DejaVu Sans;font-size:10px;font-style:normal;font-weight:normal;text-anchor:end;" transform="rotate(-0, 50.6, 133.348132)" x="50.6" y="133.348132">80</text>
     </g>
    </g>
    <g id="ytick_6">
     <g id="line2d_12">
      <g>
       <use style="stroke:#000000;stroke-width:0.8;" x="57.6" xlink:href="#mb7506683a5" y="87.990682"/>
      </g>
     </g>
     <g id="text_13">
      <text style="font-family:DejaVu Sans;font-size:10px;font-style:normal;font-weight:normal;text-anchor:end;" transform="rotate(-0, 50.6, 91.789901)" x="50.6" y="91.789901">100</text>
     </g>
    </g>
    <g id="ytick_7">
     <g id="line2d_13">
      <g>
       <use style="stroke:#000000;stroke-width:0.8;" x="57.6" xlink:href="#mb7506683a5" y="46.432452"/>
      </g>
     </g>
     <g id="text_14">
      <text style="font-family:DejaVu Sans;font-size:10px;font-style:normal;font-weight:normal;text-anchor:end;" transform="rotate(-0, 50.6, 50.231671)" x="50.6" y="50.231671">120</text>
     </g>
    </g>
    <g id="text_15">
     <text style="font-family:DejaVu Sans;font-size:10px;font-style:normal;font-weight:normal;text-anchor:middle;" transform="rotate(-90, 25.432813, 174.528)" x="25.432813" y="174.528">Coin Flips Needed</text>
    </g>
   </g>
   <g id="line2d_14">
    <path clip-path="url(#p4fb6873355)" d="M 73.832727 295.488 
L 77.112066 294.757265 
L 80.391405 294.57195 
L 83.670744 294.450474 
L 86.950083 294.358495 
L 90.229421 294.283966 
L 93.50876 294.221115 
L 96.788099 294.166685 
L 100.067438 294.118646 
L 103.346777 294.075636 
L 106.626116 294.036699 
L 109.905455 294.001131 
L 113.184793 293.9684 
L 116.464132 293.938093 
L 119.743471 293.909883 
L 123.02281 293.883506 
L 126.302149 293.858745 
L 129.581488 293.83542 
L 132.860826 293.813381 
L 136.140165 293.792499 
L 139.419504 293.772665 
L 142.698843 293.753783 
L 145.978182 293.735772 
L 149.257521 293.718559 
L 152.53686 293.702081 
L 155.816198 293.686282 
L 159.095537 293.671112 
L 162.374876 293.656527 
L 165.654215 293.642485 
L 168.933554 293.628952 
L 172.212893 293.615894 
L 175.492231 293.603282 
L 178.77157 293.59109 
L 182.050909 293.579291 
L 185.330248 293.567865 
L 188.609587 293.55679 
L 191.888926 293.546048 
L 195.168264 293.535621 
L 198.447603 293.525492 
L 201.726942 293.515647 
L 205.006281 293.506072 
L 208.28562 293.496754 
L 211.564959 293.48768 
L 214.844298 293.478841 
L 218.123636 293.470225 
L 221.402975 293.461823 
L 224.682314 293.453624 
L 227.961653 293.445622 
L 231.240992 293.437807 
L 234.520331 293.430172 
L 237.799669 293.42271 
L 241.079008 293.415415 
L 244.358347 293.408279 
L 247.637686 293.401297 
L 250.917025 293.394463 
L 254.196364 293.387771 
L 257.475702 293.381217 
L 260.755041 293.374796 
L 264.03438 293.368503 
L 267.313719 293.362334 
L 270.593058 293.356284 
L 273.872397 293.35035 
L 277.151736 293.344528 
L 280.431074 293.338814 
L 283.710413 293.333205 
L 286.989752 293.327698 
L 290.269091 293.322289 
L 293.54843 293.316975 
L 296.827769 293.311754 
L 300.107107 293.306623 
L 303.386446 293.301579 
L 306.665785 293.296619 
L 309.945124 293.291743 
L 313.224463 293.286946 
L 316.503802 293.282227 
L 319.78314 293.277583 
L 323.062479 293.273013 
L 326.341818 293.268515 
L 329.621157 293.264086 
L 332.900496 293.259726 
L 336.179835 293.255431 
L 339.459174 293.251201 
L 342.738512 293.247034 
L 346.017851 293.242928 
L 349.29719 293.238882 
L 352.576529 293.234895 
L 355.855868 293.230964 
L 359.135207 293.227088 
L 362.414545 293.223267 
L 365.693884 293.219499 
L 368.973223 293.215783 
L 372.252562 293.212117 
L 375.531901 293.2085 
L 378.81124 293.204932 
L 382.090579 293.201411 
L 385.369917 293.197936 
L 388.649256 293.194506 
L 391.928595 293.19112 
L 395.207934 293.187778 
L 398.487273 293.184478 
" style="fill:none;stroke:#1f77b4;stroke-linecap:square;stroke-width:1.5;"/>
   </g>
   <g id="line2d_15">
    <path clip-path="url(#p4fb6873355)" d="M 73.832727 53.568 
L 77.112066 273.286364 
L 80.391405 280.272303 
L 83.670744 284.581892 
L 86.950083 284.785527 
L 90.229421 285.296693 
L 93.50876 287.046295 
L 96.788099 286.954866 
L 100.067438 287.075385 
L 103.346777 287.000581 
L 106.626116 288.438495 
L 109.905455 288.546547 
L 113.184793 288.322132 
L 116.464132 289.261348 
L 119.743471 289.011999 
L 123.02281 289.352776 
L 126.302149 289.024466 
L 129.581488 289.809917 
L 132.860826 289.261348 
L 136.140165 290.050955 
L 139.419504 289.760047 
L 142.698843 289.97615 
L 145.978182 290.084201 
L 149.257521 289.897189 
L 152.53686 290.009396 
L 155.816198 290.408355 
L 159.095537 290.092513 
L 162.374876 290.479004 
L 165.654215 290.424979 
L 168.933554 290.35433 
L 172.212893 290.553809 
L 175.492231 290.823938 
L 178.77157 290.591212 
L 182.050909 290.53303 
L 185.330248 290.840561 
L 188.609587 290.666016 
L 191.888926 290.649393 
L 195.168264 290.578744 
L 198.447603 290.803159 
L 201.726942 290.807314 
L 205.006281 290.774068 
L 208.28562 290.782379 
L 211.564959 290.765756 
L 214.844298 290.799003 
L 218.123636 291.035885 
L 221.402975 290.907054 
L 224.682314 290.782379 
L 227.961653 291.073287 
L 231.240992 291.314325 
L 234.520331 291.085755 
L 237.799669 291.123157 
L 241.079008 291.185494 
L 244.358347 291.094066 
L 247.637686 291.123157 
L 250.917025 291.143936 
L 254.196364 291.439 
L 257.475702 291.181339 
L 260.755041 291.260299 
L 264.03438 291.326792 
L 267.313719 291.235364 
L 270.593058 291.264455 
L 273.872397 291.384974 
L 277.151736 291.310169 
L 280.431074 291.281078 
L 283.710413 291.268611 
L 286.989752 291.384974 
L 290.269091 291.41822 
L 293.54843 291.364195 
L 296.827769 291.393285 
L 300.107107 291.393285 
L 303.386446 291.384974 
L 306.665785 291.28939 
L 309.945124 291.393285 
L 313.224463 291.364195 
L 316.503802 291.364195 
L 319.78314 291.351727 
L 323.062479 291.472246 
L 326.341818 291.505493 
L 329.621157 291.526272 
L 332.900496 291.476402 
L 336.179835 291.493025 
L 339.459174 291.559518 
L 342.738512 291.526272 
L 346.017851 291.459779 
L 349.29719 291.480558 
L 352.576529 291.547051 
L 355.855868 291.559518 
L 359.135207 291.555363 
L 362.414545 291.621856 
L 365.693884 291.601077 
L 368.973223 291.605232 
L 372.252562 291.605232 
L 375.531901 291.56783 
L 378.81124 291.630167 
L 382.090579 291.638479 
L 385.369917 291.605232 
L 388.649256 291.634323 
L 391.928595 291.588609 
L 395.207934 291.609388 
L 398.487273 291.626012 
" style="fill:none;stroke:#ff7f0e;stroke-linecap:square;stroke-width:1.5;"/>
   </g>
   <g id="patch_3">
    <path d="M 57.6 307.584 
L 57.6 41.472 
" style="fill:none;stroke:#000000;stroke-linecap:square;stroke-linejoin:miter;stroke-width:0.8;"/>
   </g>
   <g id="patch_4">
    <path d="M 414.72 307.584 
L 414.72 41.472 
" style="fill:none;stroke:#000000;stroke-linecap:square;stroke-linejoin:miter;stroke-width:0.8;"/>
   </g>
   <g id="patch_5">
    <path d="M 57.6 307.584 
L 414.72 307.584 
" style="fill:none;stroke:#000000;stroke-linecap:square;stroke-linejoin:miter;stroke-width:0.8;"/>
   </g>
   <g id="patch_6">
    <path d="M 57.6 41.472 
L 414.72 41.472 
" style="fill:none;stroke:#000000;stroke-linecap:square;stroke-linejoin:miter;stroke-width:0.8;"/>
   </g>
   <g id="text_16">
    <text style="font-family:DejaVu Sans;font-size:12px;font-style:normal;font-weight:normal;text-anchor:middle;" transform="rotate(-0, 236.16, 35.472)" x="236.16" y="35.472">Coin Flips for pow(x,5/4)</text>
   </g>
   <g id="legend_1">
    <g id="patch_7">
     <path d="M 219.784062 78.82825 
L 407.72 78.82825 
Q 409.72 78.82825 409.72 76.82825 
L 409.72 48.472 
Q 409.72 46.472 407.72 46.472 
L 219.784062 46.472 
Q 217.784062 46.472 217.784062 48.472 
L 217.784062 76.82825 
Q 217.784062 78.82825 219.784062 78.82825 
z
" style="fill:#ffffff;opacity:0.8;stroke:#cccccc;stroke-linejoin:miter;"/>
    </g>
    <g id="line2d_16">
     <path d="M 221.784062 54.570437 
L 241.784062 54.570437 
" style="fill:none;stroke:#1f77b4;stroke-linecap:square;stroke-width:1.5;"/>
    </g>
    <g id="line2d_17"/>
    <g id="text_17">
     <text style="font-family:DejaVu Sans;font-size:10px;font-style:normal;font-weight:normal;text-anchor:start;" transform="rotate(-0, 249.784062, 58.070437)" x="249.784062" y="58.070437">Coin Flip Lower Bound (Mendo)</text>
    </g>
    <g id="line2d_18">
     <path d="M 221.784062 69.248562 
L 241.784062 69.248562 
" style="fill:none;stroke:#ff7f0e;stroke-linecap:square;stroke-width:1.5;"/>
    </g>
    <g id="line2d_19"/>
    <g id="text_18">
     <text style="font-family:DejaVu Sans;font-size:10px;font-style:normal;font-weight:normal;text-anchor:start;" transform="rotate(-0, 249.784062, 72.748562)" x="249.784062" y="72.748562">Avg. Coins Flipped pow(x,5/4)</text>
    </g>
   </g>
  </g>
 </g>
 <defs>
  <clipPath id="p4fb6873355">
   <rect height="266.112" width="357.12" x="57.6" y="41.472"/>
  </clipPath>
 </defs>
</svg>

<svg height="460.8" viewBox="0 0 460.8 345.6" width="614.4" xmlns="http://www.w3.org/2000/svg" xmlns:xlink="http://www.w3.org/1999/xlink"><defs><style>*{stroke-linecap:butt;stroke-linejoin:round}</style></defs><g id="figure_1"><path d="M0 345.6h460.8V0H0z" fill="#fff" id="patch_1"/><g id="axes_1"><path d="M57.6 307.584h357.12V41.472H57.6z" fill="#fff" id="patch_2"/><g id="matplotlib.axis_1"><g id="xtick_1"><g id="line2d_1"><defs><path d="M0 0v3.5" id="m12949b4d18" stroke="#000" stroke-width=".8"/></defs><use x="73.8" xlink:href="#m12949b4d18" y="307.584" stroke="#000" stroke-width=".8"/></g><text x="73.8" y="322.182" font-family="DejaVu Sans" font-size="10" font-weight="400" text-anchor="middle" id="text_1">0.0</text></g><g id="xtick_2"><use x="138.744" xlink:href="#m12949b4d18" y="307.584" stroke="#000" stroke-width=".8" id="line2d_2"/><text x="138.744" y="322.182" font-family="DejaVu Sans" font-size="10" font-weight="400" text-anchor="middle" id="text_2">0.2</text></g><g id="xtick_3"><use x="203.688" xlink:href="#m12949b4d18" y="307.584" stroke="#000" stroke-width=".8" id="line2d_3"/><text x="203.688" y="322.182" font-family="DejaVu Sans" font-size="10" font-weight="400" text-anchor="middle" id="text_3">0.4</text></g><g id="xtick_4"><use x="268.632" xlink:href="#m12949b4d18" y="307.584" stroke="#000" stroke-width=".8" id="line2d_4"/><text x="268.632" y="322.182" font-family="DejaVu Sans" font-size="10" font-weight="400" text-anchor="middle" id="text_4">0.6</text></g><g id="xtick_5"><use x="333.576" xlink:href="#m12949b4d18" y="307.584" stroke="#000" stroke-width=".8" id="line2d_5"/><text x="333.576" y="322.182" font-family="DejaVu Sans" font-size="10" font-weight="400" text-anchor="middle" id="text_5">0.8</text></g><g id="xtick_6"><use x="398.52" xlink:href="#m12949b4d18" y="307.584" stroke="#000" stroke-width=".8" id="line2d_6"/><text x="398.52" y="322.182" font-family="DejaVu Sans" font-size="10" font-weight="400" text-anchor="middle" id="text_6">1.0</text></g><text x="236.16" y="335.861" font-family="DejaVu Sans" font-size="10" font-weight="400" text-anchor="middle" id="text_7">Input Coin&apos;s Heads Probability (λ)</text></g><g id="matplotlib.axis_2"><g id="ytick_1"><g id="line2d_7"><defs><path d="M0 0h-3.5" id="mb7506683a5" stroke="#000" stroke-width=".8"/></defs><use x="57.6" xlink:href="#mb7506683a5" y="295.782" stroke="#000" stroke-width=".8"/></g><text x="50.6" y="299.581" font-family="DejaVu Sans" font-size="10" font-weight="400" text-anchor="end" id="text_8">0</text></g><g id="ytick_2"><use x="57.6" xlink:href="#mb7506683a5" y="254.224" stroke="#000" stroke-width=".8" id="line2d_8"/><text x="50.6" y="258.023" font-family="DejaVu Sans" font-size="10" font-weight="400" text-anchor="end" id="text_9">20</text></g><g id="ytick_3"><use x="57.6" xlink:href="#mb7506683a5" y="212.665" stroke="#000" stroke-width=".8" id="line2d_9"/><text x="50.6" y="216.465" font-family="DejaVu Sans" font-size="10" font-weight="400" text-anchor="end" id="text_10">40</text></g><g id="ytick_4"><use x="57.6" xlink:href="#mb7506683a5" y="171.107" stroke="#000" stroke-width=".8" id="line2d_10"/><text x="50.6" y="174.906" font-family="DejaVu Sans" font-size="10" font-weight="400" text-anchor="end" id="text_11">60</text></g><g id="ytick_5"><use x="57.6" xlink:href="#mb7506683a5" y="129.549" stroke="#000" stroke-width=".8" id="line2d_11"/><text x="50.6" y="133.348" font-family="DejaVu Sans" font-size="10" font-weight="400" text-anchor="end" id="text_12">80</text></g><g id="ytick_6"><use x="57.6" xlink:href="#mb7506683a5" y="87.991" stroke="#000" stroke-width=".8" id="line2d_12"/><text x="50.6" y="91.79" font-family="DejaVu Sans" font-size="10" font-weight="400" text-anchor="end" id="text_13">100</text></g><g id="ytick_7"><use x="57.6" xlink:href="#mb7506683a5" y="46.432" stroke="#000" stroke-width=".8" id="line2d_13"/><text x="50.6" y="50.232" font-family="DejaVu Sans" font-size="10" font-weight="400" text-anchor="end" id="text_14">120</text></g><text transform="rotate(-90 25.433 174.528)" x="25.433" y="174.528" font-family="DejaVu Sans" font-size="10" font-weight="400" text-anchor="middle" id="text_15">Coin Flips Needed</text></g><path clip-path="url(#p4fb6873355)" d="M73.833 295.488l3.28-.73 3.278-.186 3.28-.122 3.28-.092 3.278-.074 3.28-.063 3.28-.054 3.278-.048 3.28-.043 3.28-.04 3.278-.035 3.28-.033 3.28-.03 3.278-.028 3.28-.026 3.28-.025 3.278-.024 3.28-.022 3.28-.02 3.279-.02 3.279-.02 3.28-.017 3.279-.017 3.279-.017 3.28-.016 3.279-.015 3.279-.014 3.28-.015 3.279-.013 3.279-.013 3.28-.013 3.279-.012 3.279-.012 3.28-.011 3.279-.011 3.279-.011 3.28-.01 3.279-.01 3.279-.01 3.28-.01 3.279-.01 3.279-.008 3.28-.01 3.279-.008 3.279-.008 3.28-.008 3.279-.008 3.279-.008 3.28-.008 3.279-.007 3.279-.008 3.28-.007 3.279-.007 3.279-.007 3.28-.006 3.279-.007 3.279-.006 3.28-.006 3.279-.007 3.28-.006 3.278-.006 3.28-.005 3.28-.006 3.278-.006 3.28-.005 3.28-.006 3.278-.005 3.28-.005 3.28-.005 3.278-.005 3.28-.005 3.28-.005 3.278-.005 3.28-.005 3.28-.004 3.278-.005 3.28-.004 3.28-.005 3.278-.004 3.28-.005 3.28-.004 3.279-.004 3.279-.004 3.28-.004 3.279-.004 3.279-.004 3.28-.004 3.279-.004 3.279-.004 3.28-.003 3.279-.004 3.279-.003 3.28-.004 3.279-.004 3.279-.003 3.28-.003 3.279-.004 3.279-.003 3.28-.004" fill="none" stroke="#1f77b4" stroke-linecap="square" stroke-width="1.5" id="line2d_14"/><path clip-path="url(#p4fb6873355)" d="M73.833 53.568l3.28 219.718 3.278 6.986 3.28 4.31 3.28.204 3.278.51 3.28 1.75 3.28-.091 3.278.12 3.28-.074 3.28 1.437 3.278.109 3.28-.225 3.28.94 3.278-.25 3.28.34 3.28-.328 3.278.786 3.28-.549 3.28.79 3.279-.291 3.279.216 3.28.108 3.279-.187 3.279.112 3.28.4 3.279-.316 3.279.386 3.28-.054 3.279-.07 3.279.199 3.28.27 3.279-.233 3.279-.058 3.28.308 3.279-.175 3.279-.017 3.28-.07 3.279.224 3.279.004 3.28-.033 3.279.008 3.279-.016 3.28.033 3.279.237 3.279-.129 3.28-.125 3.279.291 3.279.241 3.28-.228 3.279.037 3.279.062 3.28-.09 3.279.028 3.279.02 3.28.296 3.279-.258 3.279.08 3.28.066 3.279-.092 3.28.03 3.278.12 3.28-.075 3.28-.029 3.278-.012 3.28.116 3.28.033 3.278-.054 3.28.03h3.28l3.278-.009 3.28-.096 3.28.104 3.278-.029h3.28l3.28-.012 3.278.12 3.28.033 3.28.021 3.278-.05 3.28.017 3.28.067 3.279-.034 3.279-.066 3.28.02 3.279.067 3.279.013 3.28-.005 3.279.067 3.279-.02 3.28.003h3.279l3.279-.037 3.28.062 3.279.008 3.279-.033 3.28.03 3.279-.046 3.279.02 3.28.017" fill="none" stroke="#ff7f0e" stroke-linecap="square" stroke-width="1.5" id="line2d_15"/><path d="M57.6 307.584V41.472" fill="none" stroke="#000" stroke-linecap="square" stroke-width=".8" id="patch_3"/><path d="M414.72 307.584V41.472" fill="none" stroke="#000" stroke-linecap="square" stroke-width=".8" id="patch_4"/><path d="M57.6 307.584h357.12" fill="none" stroke="#000" stroke-linecap="square" stroke-width=".8" id="patch_5"/><path d="M57.6 41.472h357.12" fill="none" stroke="#000" stroke-linecap="square" stroke-width=".8" id="patch_6"/><text x="236.16" y="35.472" font-family="DejaVu Sans" font-size="12" font-weight="400" text-anchor="middle" id="text_16">Coin Flips for pow(x,5/4)</text><g id="legend_1"><path d="M219.784 78.828H407.72q2 0 2-2V48.472q0-2-2-2H219.784q-2 0-2 2v28.356q0 2 2 2z" fill="#fff" opacity=".8" stroke="#ccc" id="patch_7"/><path d="M221.784 54.57h20" fill="none" stroke="#1f77b4" stroke-linecap="square" stroke-width="1.5" id="line2d_16"/><text x="249.784" y="58.07" font-family="DejaVu Sans" font-size="10" font-weight="400" id="text_17">Coin Flip Lower Bound (Mendo)</text><path d="M221.784 69.249h20" fill="none" stroke="#ff7f0e" stroke-linecap="square" stroke-width="1.5" id="line2d_18"/><text x="249.784" y="72.749" font-family="DejaVu Sans" font-size="10" font-weight="400" id="text_18">Avg. Coins Flipped pow(x,5/4)</text></g></g></g><defs><clipPath id="p4fb6873355"><path d="M57.6 41.472h357.12v266.112H57.6z"/></clipPath></defs></svg>
